X:205
%%etbk:tnset id:148,pos:1,rep:2x,ant:Box erst ab 2.x
%%etbk:tnset id:506,pos:1,rep:2x,ant:Box erst ab 2.x
%%etbk:wsite http://thesession.org/tunes/234
%%etbk:pldat 2016-03-22T16:07,2015-11-04T16:10,2015-11-03T17:02,2015-11-01T15:59,2015-10-31T16:33,2015-10-24T14:20,2015-10-19T18:30,2015-10-08T18:12,2015-10-06T17:46,2015-10-05T19:02,2015-10-01T18:14,2015-09-30T15:43,2015-09-29T15:57,2015-09-28T18:34,2015-08-30T16:19,2015-08-27T18:15,2015-08-24T19:05,2015-08-19T16:30,2014-12-03T18:18,2014-10-30T18:16,2014-10-29T16:48,2014-10-28T16:15,2014-10-27T18:06,2014-10-25T14:17,2014-10-24T18:45,2014-10-23T19:03,2014-10-22T19:29,2014-10-20T18:02,2014-10-19T15:38,2014-10-14T18:54,2014-10-12T14:44,2014-10-11T13:38,2014-10-09T09:34,2014-10-07T15:01,2014-10-05T15:15,2014-10-03T15:22,2014-09-30T10:28,2014-09-27T10:45,2014-01-22T15:29,2014-01-21T16:33,2014-01-20T18:12,2014-01-19T13:01,2014-01-18T14:49,2014-01-17T17:51,2014-01-15T15:44,2014-01-13T18:11,2014-01-12T13:26,2014-01-08T16:07,2014-01-07T15:31,2014-01-06T18:39,2013-12-29T12:18,2013-12-28T13:05,2013-12-27T16:41,2013-12-22T16:42,2013-12-17T16:22,2013-12-16T18:49,2013-10-29T16:21,2013-10-18T15:25,2013-10-15T18:32,2013-10-13T16:23,2013-10-08T16:04,2013-10-04T16:46,2013-05-23T18:34,2013-05-14T19:14,2013-05-09T15:44,2013-05-07T18:40,2013-05-02T17:57,2013-05-01T17:44
T: Farrel O'Gara's
Z: Piano Box Version by Martin Fleischmann
H: Created 2013-02-19 /  Last Modified 2013-05-23
R: reel
M: 4/4
L: 1/8
K: Dmaj
|: "D"!4!A!1!D!2!D!2!D !4!A!1!D!2!F!4!A | !5!B!2!F!4!A!2!F "A"!1!E2!2!B!3!c | "G"!4!d!2!B{d}B!1!A !2!B!4!d!1!A!3!F | "A"!4!GEFD !2!E{G}E!1!D!2!F |
"D"!4!A!1!D!2!D!2!D !4!A!1!D!2!F!4!A | !5!B!2!F!4!A!2!F "A"!1!E2!2!B!3!c | "G"!4!d!2!B{d}B!1!A !2!B!4!d!1!A!3!F  | "A"!4!GFEG "D"!3!F!1!DD2 :|
"D"!4!f2!1!d!1!d !3!f!1!d!4!g!2!e | !3!fdgf !2!e!1!d!2!B!3!c | "G"!4!d!2!B{d}B!1!A !2!B!3!c!1!d!2!e | "D"!3!f!1!d (3ddd "A"!2!e!4!g!3!g!4!g |
"D"!3!f!1!d !3!(3d!2!d!1!d !3!f!1!d!4!g!2!e | !3!fdgf !2!e!1!d!2!B!3!c | "G"!4!d!2!B{d}B!1!A !2!B!4!d!1!A!3!F | "A"!4!GFEG "D"!3!F!1!DD2 |
"D"!4!f2!1!d!1!d !3!f!1!d!4!g!2!e | !3!fdgf !2!e!1!d!2!B!3!c | "G"!4!d!2!B{d}B!1!A !2!B!3!c!1!d!2!e | "D"!3!f2af "A"!4!gfeg |
"D"!3!f2!5!af !2!e!1!d!2!B!3!c | "G"!4!d2!5!f!4!d !2!B!1!A!2!F!4!A | "D"!4!ADDD !4!A!2!D!3!F!4!A | "A"!5!B!2!F!4!A!2!F "D"!1!D4 ||


